src/assets/svg/icons/fa/nuevos/classic/thin/face-smirking classic thin.svg

<svg xmlns="http://www.w3.org/2000/svg" viewBox="0 0 512 512"><!--! Font Awesome Pro 6.4.0 by @fontawesome - https://fontawesome.com License - https://fontawesome.com/license (Commercial License) Copyright 2023 Fonticons, Inc. --><path d="M496 256A240 240 0 1 0 16 256a240 240 0 1 0 480 0zM0 256a256 256 0 1 1 512 0A256 256 0 1 1 0 256zm383.9 89.3l-.2 1.2c-5.1 30.9-31.8 53.5-63.1 53.5H200c-4.4 0-8-3.6-8-8s3.6-8 8-8H320.6c23.5 0 43.5-17 47.3-40.1l.2-1.2c.7-4.4 4.8-7.3 9.2-6.6s7.3 4.8 6.6 9.2zM104 192h72c17.7 0 32 14.3 32 32s-14.3 32-32 32s-32-14.3-32-32c0-5.8 1.6-11.3 4.3-16H104c-4.4 0-8-3.6-8-8s3.6-8 8-8zm72 16a16 16 0 1 0 0 32 16 16 0 1 0 0-32zm112-8c0-4.4 3.6-8 8-8h72c17.7 0 32 14.3 32 32s-14.3 32-32 32s-32-14.3-32-32c0-5.8 1.6-11.3 4.3-16H296c-4.4 0-8-3.6-8-8zm64 24a16 16 0 1 0 32 0 16 16 0 1 0 -32 0z"/></svg>

<svg xmlns="http://www.w3.org/2000/svg" viewBox="0 0 512 512"><path d="M383.7 346.5C378.5 377.4 351.8 400 320.6 400H200C195.6 400 192 396.4 192 392C192 387.6 195.6 384 200 384H320.6C344 384 364.1 367 367.9 343.9L368.1 342.7C368.8 338.3 372.1 335.4 377.3 336.1C381.7 336.8 384.6 340.1 383.9 345.3L383.7 346.5zM176 192C193.7 192 208 206.3 208 224C208 241.7 193.7 256 176 256C158.3 256 144 241.7 144 224C144 218.2 145.6 212.7 148.3 208H104C99.58 208 96 204.4 96 200C96 195.6 99.58 192 104 192H176zM176 208C167.2 208 160 215.2 160 224C160 232.8 167.2 240 176 240C184.8 240 192 232.8 192 224C192 215.2 184.8 208 176 208zM288 200C288 195.6 291.6 192 296 192H368C385.7 192 400 206.3 400 224C400 241.7 385.7 256 368 256C350.3 256 336 241.7 336 224C336 218.2 337.6 212.7 340.3 208H296C291.6 208 288 204.4 288 200zM368 240C376.8 240 384 232.8 384 224C384 215.2 376.8 208 368 208C359.2 208 352 215.2 352 224C352 232.8 359.2 240 368 240zM512 256C512 397.4 397.4 512 256 512C114.6 512 0 397.4 0 256C0 114.6 114.6 0 256 0C397.4 0 512 114.6 512 256zM256 16C123.5 16 16 123.5 16 256C16 388.5 123.5 496 256 496C388.5 496 496 388.5 496 256C496 123.5 388.5 16 256 16z"/></svg>
